img/icons/financial/money.svg

<svg xmlns="http://www.w3.org/2000/svg" viewBox="0 0 48 48"><defs><style>.cls-1{fill:#231f20}</style></defs><g id="Layer_2" data-name="Layer 2"><g id="Icons"><g id="Shopping"><g id="Money"><path class="cls-1" d="M24 0a24 24 0 1024 24A24 24 0 0024 0zm0 46a22 22 0 1122-22 22 22 0 01-22 22z"/><path class="cls-1" d="M25.13 22.93l1.22-10.7A13 13 0 0130 13.78l1-1.73a15.07 15.07 0 00-4.43-1.82L27 6.61l-2-.22-.41 3.61h-.09c-3.82 0-7.42 3.21-7.42 6.61 0 3.08 1.93 5.55 5.9 7.53l-1.34 11.7a11 11 0 01-3.93-1.62l-.2-.12-1 1.72.2.12a12.9 12.9 0 004.72 1.89L21 41.39l2 .22.41-3.61h.09c4.18 0 8.5-2.66 8.5-7.12 0-3.63-1.81-5.73-6.87-7.95zm-6.05-6.32c0-2.25 2.64-4.53 5.28-4.6L23.22 22c-2.77-1.53-4.14-3.3-4.14-5.39zM23.64 36l1.25-11c4.29 2 5.11 3.58 5.11 5.88 0 3.47-3.68 5.06-6.36 5.12z"/></g></g></g></g></svg>

<svg xmlns="http://www.w3.org/2000/svg" viewBox="0 0 48 48"><defs><style>.cls-1{fill:#231f20;}</style></defs><title>Money</title><g id="Layer_2" data-name="Layer 2"><g id="Icons"><g id="Shopping"><g id="Money"><path class="cls-1" d="M24,0A24,24,0,1,0,48,24,24,24,0,0,0,24,0Zm0,46A22,22,0,1,1,46,24,22,22,0,0,1,24,46Z"/><path class="cls-1" d="M25.13,22.93l1.22-10.7A13,13,0,0,1,30,13.78l1-1.73a15.07,15.07,0,0,0-4.43-1.82L27,6.61l-2-.22L24.59,10H24.5c-3.82,0-7.42,3.21-7.42,6.61,0,3.08,1.93,5.55,5.9,7.53l-1.34,11.7a11,11,0,0,1-3.93-1.62l-.2-.12-1,1.72.2.12a12.9,12.9,0,0,0,4.72,1.89L21,41.39l2,.22L23.41,38h.09c4.18,0,8.5-2.66,8.5-7.12C32,27.25,30.19,25.15,25.13,22.93Zm-6.05-6.32c0-2.25,2.64-4.53,5.28-4.6L23.22,22C20.45,20.47,19.08,18.7,19.08,16.61ZM23.64,36l1.25-11C29.18,27,30,28.58,30,30.88,30,34.35,26.32,35.94,23.64,36Z"/></g></g></g></g></svg>
